X:1
T:The High Road to Linton
C:Anonymous; arr. T. S. Macdonald
M:C|
K:A
%%staves { 1 2 }
V:1
ceef a2 ae | f2 fe a2 ae | ceef a2 ae | faec B2 A2 :|
|: cee=g fddf | ecce fBBd | cee=g fddf | ecac B2 A2 :|
|: a2 a2 ef a2 | efae faef | a2 a2 efae | faec B2 A2 :|
|: c2 ec d2 fd | c/c/c ec BcdB | c2 ec defg | afec B2 A2 :]
V:2 clef=treble
L:1/4
"0"A A2 A | "0"D D2 D | "0"A A2 A | "0"D "1"E2 "0"A :|
|: "1"A, A, "0"D D | "1"A, A, "2"B, B, |"1"A, A, "0"D D | "0"D "1"E E "1"A, :|
|: "0"A A2 A | "0"D D2 D | "0"A A2 A | "0"D "1"E2 "0"A :|
|: "1"A, A, "0"D D | "1"A, A, "2"B, B, |"1"A, A, "0"D D | "0"D "1"E E "1"A, :|
